X:1
T:James Gibb editions
T:O Thou, who in the light dost dwell - Barnby
%%score [ ( 1 2 ) ( 3 4 ) ]
L:1/8
Q:1/4=84
M:4/4
K:Eb
V:1 treble nm="Midi_74"
V:2 treble 
V:3 bass nm="Midi_74"
V:4 bass 
V:1
"^Charles Coffin (trans.)\n(1676-1749)""^88. 86""^O Thou, who in the light dost dwell""^Joseph Barnby\n(1838-96)" G2 | %1
 B2 G2 E2 F2 | G2 A2 G2 || B2 | d2 B2 G2 =A2 | B2 =A2 G2 ||[M:4/4] B2 | B2 c2 B2 e2 | d2 c2 B2 || %9
 c2 | A2 GF G2 F2 | E6 || A4 G4 |] %13
V:2
 E2 | E2 D2 E2 E2 | E2 D2 E2 || E2 | D2 G2 G2 G2 | G2 ^F2 G2 ||[M:4/4] D2 | D2 C2 F2 E2 | %8
 FD EF G2 || G2 | CD E2 E2 D2 | E6 || E4 E4 |] %13
V:3
 B,2 | G,2 B,2 G,2 C2 | B,2 F,2 G,2 || G,2 | G,2 D2 B,2 E2 | D2 C2 B,2 || %6
[M:4/4]"^1. O Thou, who in the light dost dwell,\nTo mortals unapproachable,\nWhere angels veil them from Thy rays,\nAnd tremble as they gaze.\n\n2. Here we in depths of darkness lie,\nPoor exiles from our home on high;\nBut bright shall dawn Thine endless day,\nAnd chase our gloom away.\n\n3. That day Thou hast in store with Thee,\nResplendent with Thy majesty,\nBut faintly shadowed here below\nBy sun in noontide glow.\n\n" B,2 | %7
 A,2 A,2 A,2 A,2 | A,B, CD E2 || %9
"^4. Why lingers then, the golden dawn?\nO why delay, thou glorious morn?\nWhen shall we cast this flesh aside,\nAnd in that light abide?\n\n5. Our souls, O God, would fain take wing\nFrom out their dark enveloping;\nAnd see Thee, praise Thee, and adore\nAnd love Thee evermore.\n\n6. Blest Three in One, Thou Source of grace,\nO fit us for that happy place;\nAn guide us safe through this our night\nTo see Thine endless light. Amen." =E2 | %10
 F2 B,C B,2 A,2 | G,6 || C4 B,4 |] %13
V:4
 E,2 | E,2 G,,2 C,2 A,,2 | B,,2 B,,2 E,2 || E,2 | B,,2 B,,2 E,2 C,2 | D,2 D,2 G,2 ||[M:4/4] G,2 | %7
 F,2 E,2 D,2 C,2 | B,,2 A,,2 G,,2 || C,2 | F,2 G,A, B,2 B,,2 | E,6 || A,,4 E,4 |] %13

